X: 28222
T: Mrs. Dundas McQueen
R: reel
M: 4/4
K: Gmajor
|:d/c/|BGdB cAec|BGdB (3def gd|BGdB cAec|BG Bc/d/ e2 d:|
|:f|gdBd eAAf|gdBd e2 df|gdBd eAAc|1 BG (3Bcd e2 d:|2 BG (3Bcd egdg||

